!!!!SEGMENT: pl-sa--305-a-vii-65--003_lechleitner-ferdinand-simon--vespere-confitebor.krn
!!!cenid: 17xx:396
!!!COM: Lechleitner, Ferdinand Simon
!!!COM-rismid: pe30001903
!!!CDT: ~1700-~1800
!!!CNT:
!!!OPR: Vespere
!!!OTL: Confitebor
!!!OMV: 003
!!!PDT:
!!!AGN: Sacred; Vespers
!!!SMS-siglum: PL-SA
!!!SMS-shelfmark: 305/A VII 65
!!!SMS-shelfwork: 001-003 M
!!!NIFC-rismid: 1001077319
!!!URL-scan: http://bc.bdsandomierz.pl/dlibra/publication/1610/edition/1578/content
!!!ONB-nifc: UWAGA: części Vespere: Domine ad adiuvandum, Dixit dominus, Confitebor, Beatus vir, Laudate pueri, Credidi, Magnificat
**kern	**fba	**kern	**kern	**kern	**text	**kern	**text	**kern	**text	**kern	**text	**kern	**kern
*part9	*	*part8	*part7	*part6	*part6	*part5	*part5	*part4	*part4	*part3	*part3	*part2	*part1
*	*	*group3	*group3	*group2	*	*group2	*	*group2	*	*group2	*	*group1	*group1
*staff9	*	*staff8	*staff7	*staff6	*staff6	*staff5	*staff5	*staff4	*staff4	*staff3	*staff3	*staff2	*staff1
*Iorgan	*	*Ivioln	*Ivioln	*Iempty	*	*Itenor	*	*Ialto	*	*Ivox	*	*Iempty	*Iempty
*I"Organo	*	*I"Violino Secundo	*I"Violino Primo	*I"Baſso	*	*I"Tenore	*	*I"Alto	*	*I"Canto	*	*I"Clarino 2do	*I"Clarino 1mo
*I'org	*	*I'vl 2	*I'vl 1	*I'B	*	*I'T	*	*I'A	*	*I'S	*	*I'clno 2	*I'clno 1
*clefF4	*	*clefG2	*clefG2	*clefF4	*	*clefC4	*	*clefC3	*	*clefC1	*	*clefG2	*clefG2
*k[]	*	*k[]	*k[]	*k[]	*	*k[]	*	*k[]	*	*k[]	*	*k[]	*k[]
*a:	*	*a:	*a:	*a:	*	*a:	*	*a:	*	*a:	*	*a:	*a:
*M2/2	*	*M2/2	*M2/2	*M2/2	*	*M2/2	*	*M2/2	*	*M2/2	*	*M2/2	*M2/2
*met(c|)	*	*met(C.)	*met(c|)	*met(C.)	*	*met(C.)	*	*met(C.)	*	*met(C.)	*	*met(C.)	*met(C.)
=1	=1	=1	=1	=1	=1	=1	=1	=1	=1	=1	=1	=1	=1
!	!	!	!	!	!	!	!	!LO:TX:b:t=P:problem:"C" przed kluczem	!	!	!	!	!
!	!	!LO:TX:a:t=P:problem:wpisane są pauzy 00r 00r 0r, o jeden takt za dużo	!LO:TX:a:t=20:problem:wpisane są pauzy 00r 00r 0r, o jeden takt za dużo	!	!	!	!	!	!	!	!	!	!
!LO:TX:b:t=Confitebor	!	!LO:TX:b:t=Confitebor	!LO:TX:b:t=Confitebor	!	!	!	!	!LO:TX:a:t=solo	!	!LO:TX:a:t=1	!	!LO:TX:a:t=Cofitebor Tacet	!LO:TX:a:t=Cofitebor Tacet
4AA/	.	00r	00r	00r	.	1r	.	8a\	(C)on-	1r	.	1ryy	1ryy
.	.	.	.	.	.	.	.	8e\	-fi-	.	.	.	.
8r	.	.	.	.	.	.	.	8a\	-te-	.	.	.	.
8AA/	.	.	.	.	.	.	.	8cc\	-bor	.	.	.	.
*16\right	*	*	*	*	*	*	*	*	*	*	*	*	*
16E\LL	.	.	.	.	.	.	.	8b\	ti-	.	.	.	.
16F\	#	.	.	.	.	.	.	.	.	.	.	.	.
16E\	.	.	.	.	.	.	.	8e\	-bi	.	.	.	.
16D\JJ	.	.	.	.	.	.	.	.	.	.	.	.	.
*8\right	*	*	*	*	*	*	*	*	*	*	*	*	*
8C\L	6	.	.	.	.	.	.	8.a\	do-	.	.	.	.
8D\J	6	.	.	.	.	.	.	.	.	.	.	.	.
.	.	.	.	.	.	.	.	16b\	-mi-	.	.	.	.
!LO:LB:g=original	!	!	!	!	!	!	!	!	!	!	!	!	!
=2	=2	=2	=2	=2	=2	=2	=2	=2	=2	=2	=2	=2	=2
*4\right	*	*	*	*	*	*	*	*	*	*	*	*	*
!	!	!	!	!	!	!LO:TX:b:t=Solo	!	!	!	!	!	!	!
4E\	#	.	.	.	.	4r	.	8g#X,<\	-ne	8b\	ma-	1ryy	1ryy
.	.	.	.	.	.	.	.	8g#\	in	8b,<\	-gna,	.	.
8r	.	.	.	.	.	8r	.	16a\LL	to-	(16cc\LL	o-	.	.
.	.	.	.	.	.	.	.	16g#X\JJ	.	16b\JJ)	.	.	.
8E\	#	.	.	.	.	8e\	Con-	8g#\	-to	16b\	-pe-	.	.
.	.	.	.	.	.	.	.	.	.	16b\	-ra	.	.
8AA/L	#	.	.	.	.	8e\	-fes-	8a\	cor-	8cc\	do-	.	.
8D/J	6	.	.	.	.	16d\	-si-	8fn\	-de	(16b\LL	-mi-	.	.
.	5	.	.	.	.	16c\	-o	.	.	16a\JJ)	.	.	.
!	!	!	!	!	!	!	!	!LO:LB:g=original	!	!	!	!	!
!LO:TX:a:t=P:problem:mixed beam	!	!	!	!	!	!	!	!	!	!	!	!	!
8E\L	#	.	.	.	.	8B\	et	16e\	me-	8g#X/	-ni,	.	.
.	.	.	.	.	.	.	.	16e,<\	-o	.	.	.	.
8EE/J	.	.	.	.	.	8B\	ma-	16g#X\	in	16ee\	ex-	.	.
.	.	.	.	.	.	.	.	16g#\	con-	16dd\	-qui-	.	.
=3	=3	=3	=3	=3	=3	=3	=3	=3	=3	=3	=3	=3	=3
4AA/	.	.	.	.	.	8c\	-gni-	8a\	-ſi-	8cc\	-si-	1ryy	1ryy
.	.	.	.	.	.	8c\	-fi-	8f\	-li-	16b\	-ta	.	.
.	.	.	.	.	.	.	.	.	.	16a\	in	.	.
8r	.	.	.	.	.	8d\	-cen-	8d\	-o	8ff\	om-	.	.
16A\LL	n	.	.	.	.	16A/	-ti-	8c\	ju-	8ee\	-nes,	.	.
16G\JJ	.	.	.	.	.	16A,</	-a	.	.	.	.	.	.
8F\L	.	.	.	.	.	8A/	e-	8d\	-ſto-	(8dd\L	vo-	.	.
8E\J	6	.	.	.	.	16G/LL	-ius	16e\	-rum	8cc\J)	.	.	.
.	.	.	.	.	.	16A/JJ	.	16e\	et	.	.	.	.
!	!	!	!	!	!	!LO:SIC:v:s=8B-	!	!	!	!	!	!	!
8D\L	-6	.	.	.	.	8B\	et	8f\	con-	(8b-X\L	-lun-	.	.
16C\L	6	.	.	.	.	16c\LL	iu-	(16e\LL	-gre-	8a\J)	.	.	.
16D\JJ	6 5	.	.	.	.	16B\JJ	.	16f\JJ)	.	.	.	.	.
!	!	!	!	!	!	!LO:LB:g=original	!	!	!	!	!	!	!
=4	=4	=4	=4	=4	=4	=4	=4	=4	=4	=4	=4	=4	=4
!LO:TX:a:t=P:problem:mixed beam	!	!	!	!	!	!	!	!	!	!	!	!	!
8E\L	#	.	.	.	.	8B\	-ſti-	8e\	-ga-	8g#X/	-ta-	1ryy	1ryy
!	!	!	!	!	!	!	!	!	!	!LO:LB:g=original	!	!	!
8D\	6 5	.	.	.	.	16B\	-ti-	8f\	-ti-	16a\LL	-tes	.	.
.	.	.	.	.	.	16A\	-a	.	.	16b\JJ	.	.	.
8E\	6 4	.	.	.	.	8.A/L	e-	8.e\L	-o-	(8cc\L	e-	.	.
8EE/J	5 #	.	.	.	.	.	.	.	.	16b\L	.	.	.
.	.	.	.	.	.	16G#X/Jk	.	16d\Jk	.	16a\JJ)	.	.	.
4AA/	.	.	.	.	.	8A/	-jus,	4c/	-ne	4a\	-jus	.	.
.	.	.	.	.	.	8e\	ma-	.	.	.	.	.	.
8r	.	.	.	.	.	8e\	-net	4r	.	4r	.	.	.
16C/LL	.	.	.	.	.	8e\	in	.	.	.	.	.	.
16D/JJ	.	.	.	.	.	.	.	.	.	.	.	.	.
=5	=5	=5	=5	=5	=5	=5	=5	=5	=5	=5	=5	=5	=5
!LO:TX:a:t=P:problem:mixed beam	!	!	!	!	!	!LO:SIC:v:l:s=ſae-	!	!LO:TX:a:t=5	!	!	!	!	!
8E\L	6	00r	00r	2r	.	8c\	ſe-	00r	.	1r	.	1ryy	1ryy
8F\	6	.	.	.	.	16d\	-cu-	.	.	.	.	.	.
.	.	.	.	.	.	16c\	-lum	.	.	.	.	.	.
8G\	5 4	.	.	.	.	8.B\	ſae-	.	.	.	.	.	.
8GG/J	x 3	.	.	.	.	.	.	.	.	.	.	.	.
.	.	.	.	.	.	16B\	-cu-	.	.	.	.	.	.
4C/	.	.	.	8r	.	8c\	-li.	.	.	.	.	.	.
.	.	.	.	8c\	Me-	8r	.	.	.	.	.	.	.
4GG/	.	.	.	8B\	-mo-	4r	.	.	.	.	.	.	.
.	.	.	.	16A\	-ri-	.	.	.	.	.	.	.	.
.	.	.	.	16B\	-am	.	.	.	.	.	.	.	.
=6	=6	=6	=6	=6	=6	=6	=6	=6	=6	=6	=6	=6	=6
16C/LL	6	.	.	8c\	fe-	00r	.	.	.	8ee\	me-	1ryy	1ryy
16D/	.	.	.	.	.	.	.	.	.	.	.	.	.
16E/	.	.	.	8c\	-cit	.	.	.	.	8ee,<\	-mor	.	.
!	!	!	!	!LO:TX:b:t=verte	!	!	!	!	!	!	!	!	!
16F/JJ	.	.	.	.	.	.	.	.	.	.	.	.	.
!	!	!	!	!LO:PB:g=original	!	!	!	!	!	!	!	!	!
!LO:TX:a:t=P:problem:mixed beam	!	!	!	!	!	!	!	!	!	!	!	!	!
8G\L	.	.	.	16G\	mi-	.	.	.	.	8dd\	e-	.	.
.	.	.	.	16A\	-ra-	.	.	.	.	.	.	.	.
8GG/J	.	.	.	16G\	-bi-	.	.	.	.	16cc\	-rit	.	.
.	.	.	.	16F\	-li-	.	.	.	.	16dd\	in	.	.
!LO:TX:a:t=P:problem:mixed beam	!	!	!	!	!	!	!	!	!	!LO:SIC:v:l:s=ſae-	!	!	!
8C/L	.	.	.	8E\	-um	.	.	.	.	(16ee\LL	ſe-	.	.
.	.	.	.	.	.	.	.	.	.	16dd\JJ)	.	.	.
8E\J	.	.	.	8G\	su-	.	.	.	.	16cc\	-cu-	.	.
.	.	.	.	.	.	.	.	.	.	16b\	-lum,	.	.
16F\LL	.	.	.	8c\	-o-	.	.	.	.	8a\	teſ-	.	.
16G\	.	.	.	.	.	.	.	.	.	.	.	.	.
16F\	.	.	.	16C/	-rum	.	.	.	.	8a\	-ta-	.	.
16E\JJ	.	.	.	16c\	mi-	.	.	.	.	.	.	.	.
=7	=7	=7	=7	=7	=7	=7	=7	=7	=7	=7	=7	=7	=7
8D\L	.	.	.	16d\LL	-se-	.	.	.	.	8a\	-men-	1ryy	1ryy
.	.	.	.	16c\JJ	.	.	.	.	.	.	.	.	.
8F#X\J	6	.	.	16B\LL	-ri-	.	.	.	.	(16dd\LL	-ti	.	.
.	.	.	.	16A\JJ	.	.	.	.	.	16cc\JJ)	.	.	.
!LO:LB:g=original	!	!	!	!	!	!	!	!	!	!	!	!	!
8G\L	.	.	.	8G\	-cors	.	.	.	.	(8b\L	su-	.	.
8D\J	6	.	.	8F#X\	et	.	.	.	.	16a\L	.	.	.
.	.	.	.	.	.	.	.	.	.	16b\JJ)	.	.	.
!LO:TX:a:t=P:problem:mixed beam	!	!	!	!	!	!	!	!	!	!	!	!	!
8E\L	.	.	.	8G\	mi-	.	.	.	.	4g/	-i,	.	.
8BB\	6	.	.	8G\	-se-	.	.	.	.	.	.	.	.
8C\	6	.	.	8A\	-ra-	.	.	.	.	8r	.	.	.
8AA/J	7	.	.	16G\	-tor	.	.	.	.	8cc\	vir-	.	.
!	!	!	!	!LO:LB:g=original	!	!	!	!	!	!	!	!	!
.	.	.	.	16A\	et	.	.	.	.	.	.	.	.
=8	=8	=8	=8	=8	=8	=8	=8	=8	=8	=8	=8	=8	=8
8D/L	6	.	.	8B\L	Iu-	.	.	.	.	(16dd\LL	-tu-	1ryy	1ryy
.	.	.	.	.	.	.	.	.	.	16ee\JJ)	.	.	.
8DD/J	5 4	.	.	16A\L	.	.	.	.	.	16dd\LL	-tem	.	.
!	!	!	!	!	!	!	!	!	!	!LO:TX:b:t=verte	!	!	!
.	x #	.	.	16G\JJ	.	.	.	.	.	16cc\JJ	.	.	.
!	!	!	!	!	!	!	!	!	!	!LO:PB:g=original	!	!	!
4GG/	.	.	.	8G\	-ſtus,	.	.	.	.	16b\	o-	.	.
.	.	.	.	.	.	.	.	.	.	16dd\	-pe-	.	.
.	.	.	.	16G\	eſ-	.	.	.	.	16cc\	-rum,	.	.
.	.	.	.	16G\	-cam	.	.	.	.	16dd\	su-	.	.
4r	.	.	.	8G\L	de-	.	.	.	.	(8b\L	-o-	.	.
.	.	.	.	16A\L	.	.	.	.	.	16cc\L)	.	.	.
.	.	.	.	16B\JJ	.	.	.	.	.	16dd\JJ	.	.	.
8r	.	.	.	8c\	-dit	.	.	.	.	8ee\	-rum,	.	.
8C/	.	.	.	8c\	ti-	.	.	.	.	8ee\	an-	.	.
=9	=9	=9	=9	=9	=9	=9	=9	=9	=9	=9	=9	=9	=9
8C/L	.	0r	0r	8c\L	-men-	.	.	1r	.	8ee\	-nun-	1ryy	1ryy
16D/L	.	.	.	16B\L	.	.	.	.	.	8dd\	-ti-	.	.
16E/JJ	.	.	.	16c\JJ	.	.	.	.	.	.	.	.	.
8F\L	.	.	.	8A\L	.	.	.	.	.	8cc\	-a-	.	.
8D\J	.	.	.	16d\L	.	.	.	.	.	(16ff\LL	-bit,	.	.
.	.	.	.	16c\JJ	.	.	.	.	.	16ee\JJ)	.	.	.
!LO:TX:a:t=P:problem:mixed beam	!	!	!	!	!	!	!	!	!	!	!	!	!
8G\L	.	.	.	8B\L	.	.	.	.	.	8dd\	po-	.	.
8F\	6 5	.	.	16c\L	.	.	.	.	.	16ee\	-pu-	.	.
.	.	.	.	16F\JJ	.	.	.	.	.	16dd\	-lo	.	.
8G\	5 4	.	.	8G\	.	.	.	.	.	4dd\	su-	.	.
8GG/J	x 3	.	.	16F\	-ti-	.	.	.	.	.	.	.	.
.	.	.	.	16G\	-bus	.	.	.	.	.	.	.	.
!	!	!	!	!	!	!	!	!LO:LB:g=original	!	!	!	!	!
=10	=10	=10	=10	=10	=10	=10	=10	=10	=10	=10	=10	=10	=10
!LO:TX:a:t=P:problem:nadliczbowa pauza w vl1 i vl2	!	!LO:TX:a:t=P:problem:nadliczbowa pauza	!LO:TX:a:t=P:problem:nadliczbowa pauza	!LO:TX:a:t=P:problem:nadliczbowa pauza w vl1 i vl2	!	!LO:TX:a:t=P:problem:nadliczbowa pauza w vl1 i vl2	!	!LO:TX:a:t=P:problem:nadliczbowa pauza w vl1 i vl2	!	!LO:TX:a:t=P:problem:nadliczbowa pauza w vl1 i vl2	!	!LO:TX:a:t=P:problem:nadliczbowa pauza w vl1 i vl2	!LO:TX:a:t=P:problem:nadliczbowa pauza w vl1 i vl2
1ryy	.	.	.	1ryy	.	1ryy	.	1ryy	.	1ryy	.	1ryy	1ryy
=11	=11	=11	=11	=11	=11	=11	=11	=11	=11	=11	=11	=11	=11
4C/	.	8r	8r	4C/	se	4r	.	4r	.	4cc,<\	-o	1ryy	1ryy
*	*	*	*8\right	*	*	*	*	*	*	*	*	*	*
!	!	!LO:TX:a:t=P:problem:mixed beam	!	!	!	!	!	!	!	!	!	!	!
.	.	8e/L	8cc\L	.	.	.	.	.	.	.	.	.	.
*	*	*8\right	*	*	*	*	*	*	*	*	*	*	*
8c\L	.	8g/	8ee\	8c\	ut	8c\	ut	8g\	ut	8ee\	ut	.	.
!	!	!	!	!LO:LB:g=original	!	!	!	!	!	!	!	!	!
8c\J	.	8ee\J	8cc\J	8c\	det	8c\	det	8g\	det,	16ee\LL	det	.	.
.	.	.	.	.	.	.	.	.	.	16ff\JJ	.	.	.
*	*	*16\right	*16\right	*	*	*	*	*	*	*	*	*	*
!	!	!	!	!	!	!	!	!	!	!LO:LB:g=original	!	!	!
!	!	!LO:TX:a:t=P:problem:mixed beam	!LO:TX:a:t=P:problem:mixed beam	!	!	!	!	!	!	!	!	!	!
8B\L	6	16dd\LL	16gg\LL	16B\LL	il-	16d\LL	il-	8b\	il-	8gg\	il-	.	.
.	.	16g/	16g/	16A\	.	16c\	.	.	.	.	.	.	.
8B\J	.	16g/	16g/	16B\	.	16d\	.	8b,<\	-lis	8gg\	-lis,	.	.
.	.	16g/JJ	16g/JJ	16c\JJ	.	16e\JJ	.	.	.	.	.	.	.
!	!	!	!	!	!	!LO:PB:g=original	!	!	!	!	!	!	!
!	!	!	!LO:TX:a:t=P:problem:mixed beam	!	!	!	!	!	!	!	!	!	!
8r	.	16b\LL	16g/LL	8B\	-lis	8d\	-lis	8r	.	8r	.	.	.
.	.	16g\	16e/	.	.	.	.	.	.	.	.	.	.
8B\	6	16b\	16gg\	8B\	he-	8B\	he-	8g\	he-	8dd\	he-	.	.
.	.	16g\JJ	16g/JJ	.	.	.	.	.	.	.	.	.	.
=12	=12	=12	=12	=12	=12	=12	=12	=12	=12	=12	=12	=12	=12
!	!	!LO:TX:a:t=P:problem:mixed beam	!	!	!	!	!	!	!	!	!	!	!
8A\L	7	8e/L	8cc\L	8A\	-re-	8c\	-re-	8g\	-re-	8cc\	-re-	1ryy	1ryy
!	!	!	!	!LO:SIC:v:l:s=-di-	!	!	!	!	!	!LO:SIC:v:l:s=-di-	!	!	!
8A\	.	8cc\J	8ee\J	8A\	-ti-	8c\	-di-	8g\	-di-	8cc\	-ti-	.	.
8D\	#	16dd\LL	16ff#X\LL	8D/	-ta-	8A/	-ta-	8f#X\	-ta-	8cc\	-ta-	.	.
.	.	16ee\	16gg\	.	.	.	.	.	.	.	.	.	.
8D\J	.	16cc\	16ee\	8D/	-tem	8d\	-tem	8a\	-tem,	(16dd\LL	-tem	.	.
.	.	16dd\JJ	16aa\JJ	.	.	.	.	.	.	16cc\JJ)	.	.	.
!	!	!	!LO:LB:g=original	!	!	!	!	!	!	!	!	!	!
8G\L	5 9	16b\LL	16aa\LL	8G\	gen-	8d\	gen-	8a\	gen-	8b\	gen-	.	.
.	x 8	16b\	16gg\	.	.	.	.	.	.	.	.	.	.
8G\	.	16dd\	16gg\	16G\	-ti-	16d\	-ti-	16g\	-ti-	16b\	-ti-	.	.
.	.	16dd\JJ	16gg\JJ	16G\	-um	16d\	-um	16g\	-um,	16b,<\	-um	.	.
8E\	6	16ee\LL	16gg\LL	8E\	o-	8c\	o-	8g\	o-	8ee\	o-	.	.
.	.	16cc\	16ee\	.	.	.	.	.	.	.	.	.	.
8E\J	.	16dd\	16ff#\	16E\	-pe-	16c\	-pe-	16g\	-pe-	16ee\	-pe-	.	.
.	.	16ee\JJ	16gg\JJ	16E\	-ra	16c,<\	-ra-	16g\	-ra	16ee\	-ra	.	.
=13	=13	=13	=13	=13	=13	=13	=13	=13	=13	=13	=13	=13	=13
8F\L	.	8cc\L	8aa\L	(8F\L	ma-	8f\L	ma-	8a\L	ma-	(8cc\L	ma-	1ryy	1ryy
8G\	6	8ee\J	8gg\J	8G\J)	.	8e\J	.	8g\J	.	8b\J)	.	.	.
!	!	!	!	!LO:SIC:v:l:s=-nuum	!	!	!	!LO:SIC:v:l:s=-nuum	!	!LO:SIC:v:l:s=-nuum	!	!	!
8A\	6	16cc\LL	16ff\LL	(8A\L	-num	8f\L	-num	8f\L	-num	(8cc\L	-num,	.	.
.	.	16ff\	16aa\	.	.	.	.	.	.	.	.	.	.
8B\J	5	16ee\	16gg\	8B\J)	.	8d\J	.	8g\J	.	8dd\J)	.	.	.
.	.	16dd\JJ	16ff\JJ	.	.	.	.	.	.	.	.	.	.
!LO:TX:a:t=P:problem:mixed beam	!	!	!	!	!	!	!	!	!	!	!	!	!
8c\L	.	8gg\L	8ee\L	8c\	e-	8c\	e-	8g\	e-	8ee\	e-	.	.
!	!	!	!	!	!	!	!	!LO:LB:g=original	!	!	!	!	!
8C/J	.	8ee\J	8gg\J	8c\	-jus	8c\	-jus	8g\	-jus	8ee\	-jus,	.	.
!LO:LB:g=original	!	!	!	!	!	!	!	!	!	!	!	!	!
!LO:TX:a:t=P:problem:mixed beam	!	!	!	!	!	!	!	!	!	!	!	!	!
8E\L	6	16ee\LL	16gg\LL	8E/	ve-	8c\	ve-	8g\	ve-	8ee\	ve-	.	.
.	.	16cc\	16ee\	.	.	.	.	.	.	.	.	.	.
!	!	!	!	!LO:LB:g=original	!	!	!	!	!	!LO:LB:g=original	!	!	!
8C/J	.	16dd\	16ff\	16C/	-ri-	16c\	-ri-	16g\	-ri-	16ee\	-ri-	.	.
.	.	16ee\JJ	16gg\JJ	16C/	-tas	16c\	-tas	16g\	-tas	16ee\	-tas	.	.
!	!	!LO:LB:g=original	!	!	!	!LO:LB:g=original	!	!	!	!	!	!	!
=14	=14	=14	=14	=14	=14	=14	=14	=14	=14	=14	=14	=14	=14
!LO:TX:a:t=P:problem:mixed beam	!	!	!	!	!	!	!	!	!	!	!	!	!
8F\L	6 5	16ff\LL	16aa\LL	8F\	et	8d\	et	8a\	et	8cc\	et	1ryy	1ryy
.	.	16ee\	16gg\	.	.	.	.	.	.	.	.	.	.
8D\	.	16ff\	16ff\	8D\	iu-	8c\	ju-	8a\	ju-	8dd\	ju-	.	.
.	.	16cc\JJ	16ee\JJ	.	.	.	.	.	.	.	.	.	.
8G\	.	16cc\LL	16dd\LL	8G\	-di-	8.c\	-di-	8.g\	-di-	8ee\	-di-	.	.
.	.	16b\	16dd\	.	.	.	.	.	.	.	.	.	.
8GG/J	5 4	16b\	16gg\	8GG/	-ci-	.	.	.	.	(16dd\LL	-ci-	.	.
.	x 3	16dd\JJ	16gg\JJ	.	.	16B\	-ci-	16g\	-ci-	16cc\JJ)	.	.	.
16C/LL	.	8ee\	8gg\	4C/	-um	8c,<\	-um,	8g,<\	-um	4cc\	-um	.	.
16D/	.	.	.	.	.	.	.	.	.	.	.	.	.
16E/	.	8r	8r	.	.	8e\	fi-	8g\	fi-	.	.	.	.
16F/JJ	.	.	.	.	.	.	.	.	.	.	.	.	.
!LO:TX:a:t=P:problem:mixed beam	!	!	!	!	!	!	!	!	!	!	!	!	!
8G\L	6	4r	4r	4r	.	8.e\	-de-	8.g\	-de-	4r	.	.	.
8GG/J	5 4	.	.	.	.	.	.	.	.	.	.	.	.
.	x 3	.	.	.	.	16d\	-li-	16f\	-li-	.	.	.	.
=15	=15	=15	=15	=15	=15	=15	=15	=15	=15	=15	=15	=15	=15
4C/	.	00r	00r	0r	.	8c,<\	-a	8e,<\	-a	2r	.	1ryy	1ryy
.	.	.	.	.	.	16c\	o-	16e\	o-	.	.	.	.
.	.	.	.	.	.	16d\	-mni-	16f\	-mni-	.	.	.	.
4r	.	.	.	.	.	16e,<\	-a	16g\	-a	.	.	.	.
.	.	.	.	.	.	16d\	man-	16f\	man-	.	.	.	.
.	.	.	.	.	.	16e\	-da-	16g\	-da-	.	.	.	.
.	.	.	.	.	.	16c\	-ta	16e\	-ta	.	.	.	.
8r	.	.	.	.	.	8f\	e-	8a\	e-	8r	.	.	.
!	!	!	!	!	!	!	!	!LO:LB:g=original	!	!	!	!	!
16D\LL	.	.	.	.	.	8f\	-jus	8a\	-jus	8dd\	Re-	.	.
16E\JJ	.	.	.	.	.	.	.	.	.	.	.	.	.
16F\LL	6	.	.	.	.	8d\	con-	8f\	con-	(16dd\LL	-dem-	.	.
16E\	.	.	.	.	.	.	.	.	.	16cc\JJ)	.	.	.
!	!	!	!	!	!	!LO:LB:g=original	!	!	!	!	!	!	!
16F\	.	.	.	.	.	8d\	-fir-	8f\	-fir-	(16dd\LL	-pti-	.	.
16D\JJ	.	.	.	.	.	.	.	.	.	16a\JJ)	.	.	.
=16	=16	=16	=16	=16	=16	=16	=16	=16	=16	=16	=16	=16	=16
8G\L	6\	.	.	.	.	4d\	-ma-	8.g\L	-ma-	8b\	-o-	1ryy	1ryy
8A\	.	.	.	.	.	.	.	.	.	8cc\	-nem,	.	.
.	.	.	.	.	.	.	.	16f#X\Jk	.	.	.	.	.
8B\	6	.	.	.	.	8B\	-ta	8g\	-ta	8dd\	mi-	.	.
8F#X\J	6	.	.	.	.	8d\	in	8a\	in	8dd\	-sit	.	.
!LO:TX:a:t=P:problem:mixed beam	!	!	!	!	!	!	!	!LO:SIC:v:l:s=ſae-	!	!	!	!	!
8G\L	.	.	.	.	.	8B\	ſae-	8b\	ſe-	8dd\	po-	.	.
8C/	-7	.	.	.	.	16e\	-cu-	16a\	-cu-	16cc\	-pu-	.	.
.	.	.	.	.	.	16A/	-lum	16g\	-lum	16b\	-lo	.	.
!	!	!	!	!	!	!	!	!	!	!LO:LB:g=original	!	!	!
!	!	!	!	!	!	!LO:SIC:v:l:s=ſae-	!	!LO:SIC:v:l:s=ſae-	!	!	!	!	!
8D/	5 4	.	.	.	.	8.A/	ſe-	8.g\	ſe-	4a\	su-	.	.
8DD/J	x #	.	.	.	.	.	.	.	.	.	.	.	.
.	.	.	.	.	.	16G/	-cu-	16f#X\	-cu-	.	.	.	.
=17	=17	=17	=17	=17	=17	=17	=17	=17	=17	=17	=17	=17	=17
4GG/	.	.	.	1r	.	8G/	-li	16g,<\	-li,	8b,<\	-o	1ryy	1ryy
.	.	.	.	.	.	.	.	16g\	fac-	.	.	.	.
.	.	.	.	.	.	16B\	fac-	16g\	-ta	8r	.	.	.
.	.	.	.	.	.	16c\	-ta	16a\	in	.	.	.	.
4r	.	.	.	.	.	(16d\LL	in	16b\LL	ve-	4r	.	.	.
.	.	.	.	.	.	16c\JJ)	.	16a\JJ	.	.	.	.	.
.	.	.	.	.	.	(16d\LL	ve-	(16b\LL	-ri-	.	.	.	.
.	.	.	.	.	.	16B\JJ)	-ri-	16g\JJ)	.	.	.	.	.
!	!	!	!	!	!	!	!	!LO:LB:g=original	!	!	!	!	!
8r	.	.	.	.	.	4e\	-ta-	4cc\	-ta-	8r	.	.	.
16C/LL	6	.	.	.	.	.	.	.	.	(16cc\LL	man-	.	.
16D/JJ	.	.	.	.	.	.	.	.	.	16b\JJ)	.	.	.
16E\LL	6	.	.	.	.	8e\	-te	8cc\	-te	8cc\	-da-	.	.
16D\	.	.	.	.	.	.	.	.	.	.	.	.	.
16E\	.	.	.	.	.	8e\	et	8g\	et	8cc\	-vit	.	.
16C\JJ	.	.	.	.	.	.	.	.	.	.	.	.	.
=18	=18	=18	=18	=18	=18	=18	=18	=18	=18	=18	=18	=18	=18
!LO:TX:a:t=P:problem:mixed beam	!	!	!	!	!	!LO:SIC:v:l:s=ae-	!	!LO:SIC:v:l:s=ae-	!	!	!	!	!
8F\L	.	.	.	2r	.	8d\	e-	16a\LL	e-	(16a\LL	in	1ryy	1ryy
.	.	.	.	.	.	.	.	16g\JJ	.	16b\JJ)	.	.	.
!	!	!	!	!	!	!LO:LB:g=original	!	!	!	!	!	!	!
8C\	.	.	.	.	.	8c\	-qui-	(16f\LL	-qui-	(16cc\LL	ae-	.	.
.	.	.	.	.	.	.	.	16e\JJ)	.	16dd\JJ)	.	.	.
8G\	.	.	.	.	.	(8.c\L	-ta-	4d\	-ta-	4dd\	-ter-	.	.
8GG/J	5 4	.	.	.	.	.	.	.	.	.	.	.	.
.	x 3	.	.	.	.	16B\Jk)	.	.	.	.	.	.	.
!LO:LB:g=original	!	!	!	!	!	!	!	!	!	!	!	!	!
8C/L	.	.	.	8G\	Sanc-	8c\	-te	8e\	-te	8cc\	-num,	.	.
!	!	!	!	!LO:TX:b:t=solo	!	!	!	!	!	!	!	!	!
8GG/J	.	.	.	8D/	-tu(m)	8r	.	8r	.	16dd\	te-	.	.
.	.	.	.	.	.	.	.	.	.	16dd\	-ſta-	.	.
8BB/L	6	.	.	8G\	et	4r	.	4r	.	(16dd\LL	-men-	.	.
.	.	.	.	.	.	.	.	.	.	16ee\	.	.	.
!	!	!	!	!LO:SIC:v:l:s=ter-	!	!	!	!	!	!	!	!	!
8AA/J	6\	.	.	8A\	te-	.	.	.	.	16dd\	.	.	.
.	.	.	.	.	.	.	.	.	.	16cc\JJ)	.	.	.
=19	=19	=19	=19	=19	=19	=19	=19	=19	=19	=19	=19	=19	=19
8GG/L	6	00r	00r	8B\	-ri-	00r	.	8g\	In-	16b\LL	-tum,	1ryy	1ryy
.	.	.	.	.	.	.	.	.	.	16a\JJ	.	.	.
8C/	.	.	.	16c\	-bi-	.	.	8g\	-tel-	16g\LL	su-	.	.
.	.	.	.	16A\	-le	.	.	.	.	16a\JJ	.	.	.
8D/	.	.	.	8F#X\	no-	.	.	8a\	-le-	8b\L	.	.	.
8DD/J	.	.	.	8D/	-men	.	.	8a\	-ctus	16a\L	.	.	.
.	6 x	.	.	.	.	.	.	.	.	16a\JJ	.	.	.
.	5 4	.	.	.	.	.	.	.	.	.	.	.	.
!	!	!	!	!LO:SIC:v:l:s=e-	!	!	!	!	!	!	!	!	!
8GG/	 x#n	.	.	8G\	ae-	.	.	8b\	Bo-	4g\	-um	.	.
!	!	!	!	!LO:LB:g=original	!	!	!	!	!	!	!	!	!
8r	.	.	.	16G\	-jus	.	.	8b\	-nus	.	.	.	.
.	.	.	.	16B\	i-	.	.	.	.	.	.	.	.
4E\	.	.	.	16c\LL	-ni-	.	.	8a\	om-	4r	.	.	.
.	.	.	.	16B\JJ	.	.	.	.	.	.	.	.	.
.	.	.	.	16c\	-ti-	.	.	16g#X\	-ni-	.	.	.	.
.	.	.	.	16G#X\	-um	.	.	16fn\	-bus	.	.	.	.
=20	=20	=20	=20	=20	=20	=20	=20	=20	=20	=20	=20	=20	=20
8C/L	6	.	.	8A\	ſa-	.	.	8e\	fa-	0r	.	1ryy	1ryy
!	!	!	!	!	!	!	!	!LO:LB:g=original	!	!	!	!	!
8AA/	.	.	.	8E\	-pi-	.	.	8a\	-ci-	.	.	.	.
8D/	6\	.	.	8F\	-en-	.	.	16f\LL	-en-	.	.	.	.
.	.	.	.	.	.	.	.	16e\	.	.	.	.	.
8BB/J	.	.	.	16E\	-ti-	.	.	16f\	.	.	.	.	.
.	.	.	.	16D\	-ae	.	.	16d\JJ	.	.	.	.	.
8C/L	6	.	.	8C/	ti-	.	.	8e\	.	.	.	.	.
8D/J	6	.	.	8D/	-mor	.	.	16d\	-ti-	.	.	.	.
.	.	.	.	.	.	.	.	16c\	-bus	.	.	.	.
!LO:TX:a:t=P:problem:mixed beam	!	!	!	!	!	!	!	!	!	!	!	!	!
8E\L	5 4	.	.	8.E\	do-	.	.	4B/	e-	.	.	.	.
8EE/J	x #	.	.	.	.	.	.	.	.	.	.	.	.
.	.	.	.	16E\	-mi-	.	.	.	.	.	.	.	.
=21	=21	=21	=21	=21	=21	=21	=21	=21	=21	=21	=21	=21	=21
4AA/	#	.	.	4AA/	-ni	.	.	8A,</	-um,	.	.	1ryy	1ryy
.	.	.	.	.	.	.	.	8a\	lau-	.	.	.	.
8r	.	.	.	4r	.	.	.	8b\	-da-	.	.	.	.
8E\	.	.	.	.	.	.	.	16a\	-ti-	.	.	.	.
.	.	.	.	.	.	.	.	16b,<\	-o	.	.	.	.
8A\L	n	.	.	2rC	.	.	.	8cc\	e-	.	.	.	.
8E\	#	.	.	.	.	.	.	8b\	-jus	.	.	.	.
.	6	.	.	.	.	.	.	.	.	.	.	.	.
8C\	6	.	.	.	.	.	.	8a\L	ma-	.	.	.	.
8D\J	5	.	.	.	.	.	.	16b\L	.	.	.	.	.
.	.	.	.	.	.	.	.	16a\JJ	.	.	.	.	.
=22	=22	=22	=22	=22	=22	=22	=22	=22	=22	=22	=22	=22	=22
8E\L	#	.	.	1r	.	.	.	8g#X\	-net	1r	.	1ryy	1ryy
8C\	6	.	.	.	.	.	.	8e\	ma-	.	.	.	.
!	!	!	!	!	!	!	!	!LO:LB:g=original	!	!	!	!	!
8AA\	.	.	.	.	.	.	.	8a\	-net	.	.	.	.
8C\J	6	.	.	.	.	.	.	8e\	in	.	.	.	.
!	!	!	!	!	!	!	!	!LO:SIC:v:l:s=ſae-	!	!	!	!	!
8D\L	.	.	.	.	.	.	.	16f\LL	ſe-	.	.	.	.
.	.	.	.	.	.	.	.	16e\JJ	.	.	.	.	.
8F\J	6	.	.	.	.	.	.	16d\	-cu-	.	.	.	.
.	.	.	.	.	.	.	.	16c/	-lum	.	.	.	.
!	!	!	!	!	!	!	!	!LO:SIC:v:l:s=ſae-	!	!	!	!	!
4E\	x 6	.	.	.	.	.	.	8c/	ſe-	.	.	.	.
.	5 4	.	.	.	.	.	.	(16B/LL	-cu-	.	.	.	.
.	x #	.	.	.	.	.	.	16A/JJ)	.	.	.	.	.
!	!	!	!	!	!	!	!	!	!	!LO:LB:g=original	!	!	!
=23	=23	=23	=23	=23	=23	=23	=23	=23	=23	=23	=23	=23	=23
8AA/L	n	8r	8r	4r	.	4r	.	4A/	-li	4r	.	1ryy	1ryy
8BB/	.	8ee\L	8aa\L	.	.	.	.	.	.	.	.	.	.
8C/	6	8ee\	8aa\	8A\	Glo-	8c\	Glo-	8g\	Glo-	8ee\	Glo-	.	.
8AA/J	.	8ee\J	8aa\J	16A\	-ri-	16c\	-ri-	16g\	-ri-	16dd\	-ri-	.	.
!LO:TX:b:t=verte	!	!	!	!LO:LB:g=original	!	!	!	!	!	!	!	!	!
.	.	.	.	16A,<\	-a	16c\	-a	16a\	-a	16cc\	-a,	.	.
!LO:PB:g=original	!	!	!	!	!	!	!	!	!	!	!	!	!
8E\L	#	16ee\LL	16gg#X\LL	8E\	pa-	8e\	Pa-	8g#X\	Pa-	8b\	Pa-	.	.
.	.	16ee\	16gg#\	.	.	.	.	.	.	.	.	.	.
8E\	6	16ee\	16gg#\	16E\	-tri	16e\	-tri	16g#\	-tri	16b\	-tri	.	.
.	.	16ee\JJ	16gg#\JJ	16E\	et	16e\	et	16g#\	et	16b\	et	.	.
8C\	6	16ee\LL	16aa\LL	8C/	fi-	8e\	fi-	8a\	fi-	8cc\	fi-	.	.
.	.	16ee\	16aa\	.	.	.	.	.	.	.	.	.	.
8D\J	5	16ff\	16aa\	8D/	-li-	16d\LL	-li-	8f\	-li-	(16b\LL	-li-	.	.
.	.	16ff\JJ	16aa\JJ	.	.	16c\JJ	.	.	.	16a\JJ)	.	.	.
=24	=24	=24	=24	=24	=24	=24	=24	=24	=24	=24	=24	=24	=24
8E\L	#	16ee\LL	16gg#X\LL	8E,<\	-o	8B\	-o	8e\	-o	8g#X,</	-o	1ryy	1ryy
.	.	16ee\	16gg#\	.	.	.	.	.	.	.	.	.	.
8C\	6	16ee\	16aa\	16C/	et	16e\	et	16a\	et	16cc\	et	.	.
.	.	16ee\JJ	16aa\JJ	16C/	spi-	16e\	spi-	16a\	spi-	16cc\	spi-	.	.
!	!	!	!	!	!	!	!	!LO:LB:g=original	!	!	!	!	!
8F\	.	16cc\LL	16aa\LL	8F\	-ri-	8A/	-ri-	8a\	-ri-	8cc\	-ri-	.	.
.	.	16cc\	16aa\	.	.	.	.	.	.	.	.	.	.
8D\J	.	16ff\	16aa\	16D/	-tu-	16A/	-tu-	16a\	-tu-	16cc\	-tu-	.	.
!	!	!	!	!	!	!LO:LB:g=original	!	!	!	!	!	!	!
.	.	16ff\JJ	16aa\JJ	16D,</	-i	16A/	-i	16b\	-j	16dd,<\	-i	.	.
!	!	!	!LO:TX:a:t=P:problem:custos użyte jako łamanie pięciolinii	!	!	!	!	!	!	!	!	!	!
!	!	!	!LO:SIC:custos cc:v	!	!	!	!	!	!	!	!	!	!
!	!	!	!LO:LB:g=original	!	!	!	!	!	!	!	!	!	!
8E\L	6	16b\LL	16gg#X\LL	8E\	ſan-	8e\	ſan-	8g#X\	ſan-	8b\	ſan-	.	.
.	7	16b\	16gg#\	.	.	.	.	.	.	.	.	.	.
8E\J	.	16b\	16gg#\	8E,<\	-cto	8e\	-cto	8g#\	-cto	8b\	-cto,	.	.
.	.	16b\JJ	16gg#\JJ	.	.	.	.	.	.	.	.	.	.
8C/L	6	16ee\LL	16aa\LL	8C/	ſi-	8e\	ſi-	8a\	ſi-	8cc\	ſi-	.	.
.	.	16ee\	16aa\	.	.	.	.	.	.	.	.	.	.
8C/J	.	16ee\	16aa\	8C/	-cut	8e\	-cut	8a\	-cut	8cc\	-cut	.	.
.	.	16ee\JJ	16aa\JJ	.	.	.	.	.	.	.	.	.	.
=25	=25	=25	=25	=25	=25	=25	=25	=25	=25	=25	=25	=25	=25
8BB/L	7	16dd\LL	16aa\LL	8BB/	e-	8B\	e-	8a\	e-	8dd\	e-	1ryy	1ryy
.	.	16dd\	16aa\	.	.	.	.	.	.	.	.	.	.
8BB/	.	16dd\	16aa\	8BB/	-rat	8B,<\	-rat	8a\	-rat	8dd\	-rat	.	.
.	.	16dd\JJ	16aa\JJ	.	.	.	.	.	.	.	.	.	.
!	!	!	!	!	!	!	!	!	!	!LO:LB:g=original	!	!	!
8E/	7 #	16b\LL	16gg#X\LL	8E\	in	8B\	in	8g#X\	in	8b\	in	.	.
.	.	16b\	16gg#\	.	.	.	.	.	.	.	.	.	.
8E/J	.	16b\	16gg#\	8E\	prin-	8e\	prin-	8g#\	prin-	8b\	prin-	.	.
.	.	16b\JJ	16gg#\JJ	.	.	.	.	.	.	.	.	.	.
!	!	!	!	!LO:LB:g=original	!	!	!	!	!	!	!	!	!
8AA/L	6\	16cc\LL	16aa\LL	8A\	-ci-	8.e\	-ci-	8.a\	-ci-	8.cc\	-ci-	.	.
.	.	16cc\	16ee\	.	.	.	.	.	.	.	.	.	.
8BB/	.	16cc\	16ee\	8B\	-pi-	.	.	.	.	.	.	.	.
.	.	16cc\JJ	16ee\JJ	.	.	16d\	-pi-	16e\	-pi-	16b\	-pi-	.	.
!	!	!LO:LB:g=original	!	!	!	!	!	!	!	!	!	!	!
8C/	6	16ee\LL	16aa\LL	8c\	-o	8c\	-o	8e\	-o	8a,<\	-o	.	.
.	.	16ee\	16aa\	.	.	.	.	.	.	.	.	.	.
8AA/J	.	16ee\	16aa\	8A\	et	8e\	et	8e\	et	8cc\	et	.	.
.	.	16ee\JJ	16aa\JJ	.	.	.	.	.	.	.	.	.	.
=26	=26	=26	=26	=26	=26	=26	=26	=26	=26	=26	=26	=26	=26
8D\L	.	16ff\LL	16aa\LL	8d\	nu(n)c	8d\	nu(n)c	8f\	nu(n)c	8dd\	nunc,	1ryy	1ryy
.	.	16ff\	16aa\	.	.	.	.	.	.	.	.	.	.
8E\	.	16ff\	16aa\	8E\	et	8G/	et	8g\	et	8cc\	et	.	.
.	.	16ff\JJ	16aa\JJ	.	.	.	.	.	.	.	.	.	.
8F\	6	16dd\LL	16aa\LL	8F\	ſem-	8d\	ſem-	8f\	ſem-	8dd\	ſem-	.	.
.	.	16dd\	16aa\	.	.	.	.	.	.	.	.	.	.
8D\J	6	16dd\	16bb\	8D/	-per	16B\LL	-per	8f\	-per	8dd\	-per,	.	.
.	.	16dd\JJ	16bb\JJ	.	.	16A\JJ	.	.	.	.	.	.	.
!	!	!	!	!	!	!	!	!LO:PB:g=original	!	!	!	!	!
8E\L	#_	16gg#X\LL	16bb\LL	8E\	et	8G#X/	et	8e\	et	8b\	et	.	.
.	.	16gg#\	16bb\	.	.	.	.	.	.	.	.	.	.
!	!	!	!	!	!	!LO:LB:g=original	!	!	!	!	!	!	!
8D\	.	16gg#\	16bb\	8D\	in	8G#/	in	8f\	in	8b\	in,	.	.
.	.	16gg#\JJ	16bb\JJ	.	.	.	.	.	.	.	.	.	.
!	!	!	!	!	!	!LO:SIC:v:l:s=ſae-	!	!	!	!	!	!	!
8C\	6	16ee\LL	16ccc\LL	8C/	ſae-	8A/	ſe-	8e\	ſae-	8cc\	ſae-	.	.
.	.	16ee\	16ccc\	.	.	.	.	.	.	.	.	.	.
8AA\J	.	16ee\	16ccc\	16AA/	-cu-	16c\	-cu-	16f\	-cu-	16cc\	-cu-	.	.
.	.	16ee\JJ	16ccc\JJ	16AA/	-la	16d\	-la	16f\	-la	16b\	-la	.	.
=27	=27	=27	=27	=27	=27	=27	=27	=27	=27	=27	=27	=27	=27
!	!	!	!	!LO:SIC:v:l:s=ſae-	!	!LO:SIC:v:l:s=ſae-	!	!	!	!LO:SIC:v:l:s=ſae-	!	!	!
8D\L	5	16ff\LL	16aa\LL	8D/	ſe-	8d\	ſe-	8f\	ſae-	8a\	ſe-	1ryy	1ryy
.	.	16ff\	16aa\	.	.	.	.	.	.	.	.	.	.
8C\	.	16ee\	16aa\	8C/	-cu-	8e\	-cu-	8e\	-cu-	8a\	-cu-	.	.
.	.	16ee\JJ	16aa\JJ	.	.	.	.	.	.	.	.	.	.
8D\	6	16ff\LL	16bb\LL	8D/	-lo-	8d\	-lo-	8f\	-lo-	8b\	-lo-	.	.
.	.	16ff\	16bb\	.	.	.	.	.	.	.	.	.	.
8BB\J	7	16ff\	16bb\	8BB,</	-rum	(16d\LL	-rum,	8f\	-rum	(16b\LL	-rum,	.	.
.	.	16ff\JJ	16bb\JJ	.	.	16c\JJ)	.	.	.	16a\JJ)	.	.	.
!LO:TX:a:t=P:problem:mixed beam	!	!	!	!	!	!	!	!	!	!	!	!	!
8E\L	#	16ee\LL	16gg#X\LL	8E\	a-	8B\	A-	8e\	A-	8g#X/	A-	.	.
.	n	16ee\	16gg#\	.	.	.	.	.	.	.	.	.	.
!	!	!	!	!	!	!	!	!	!	!LO:LB:g=original	!	!	!
8AA/J	.	16ee\	16aa\	8AA/	-men	8c\	-men	8e\	-men	8a\	-men	.	.
.	.	16ee\JJ	16aa\JJ	.	.	.	.	.	.	.	.	.	.
!	!	!	!LO:LB:g=original	!LO:LB:g=original	!	!	!	!	!	!	!	!	!
!LO:TX:a:t=P:problem:mixed beam	!	!	!	!LO:TX:a:t=P:problem:mixed beam	!	!	!	!	!	!	!	!	!
8E\L	5 4	16ee\LL	16aa\LL	(>8E\L	A-	4B\	a-	4e\	A-	(8a\L	A-	.	.
.	.	16ee\	16aa\	.	.	.	.	.	.	.	.	.	.
8EE/J	x #	16ee\	16gg#X\	8EE/J)	.	.	.	.	.	8g#X\J)	.	.	.
.	.	16ee\JJ	16gg#\JJ	.	.	.	.	.	.	.	.	.	.
=28	=28	=28	=28	=28	=28	=28	=28	=28	=28	=28	=28	=28	=28
*	*	*4\right	*4\right	*	*	*	*	*	*	*	*	*	*
4AA/	.	4cc#X\	4aa\	4AA/	-men	4c#X\	-men	4e\	-men	4a\	-men	1ryy	1ryy
4r	.	4r	4r	4r	.	4r	.	4r	.	4r	.	.	.
2r	.	2r	2r	2rC	.	2r	.	2r	.	2rf	.	.	.
==	==	==	==	==	==	==	==	==	==	==	==	==	==
*-	*-	*-	*-	*-	*-	*-	*-	*-	*-	*-	*-	*-	*-
!!!system-decoration: [g1][g2][g3]s9
!!!RDF**kern: > = above
!!!RDF**kern: < = below
!!!ENC: Zofia Niedbalska
!!!END: 2020-11-11
!!!ENC: Andrzej Borzym
!!!END: 2020-05-07
